svg/fluentui-system-icons/ic_fluent_task_list_rtl_20_filled.svg

<svg width="20" height="20" viewBox="0 0 20 20" fill="none" xmlns="http://www.w3.org/2000/svg">
<path d="M17.8536 4.35355C18.0488 4.15829 18.0488 3.84171 17.8536 3.64645C17.6583 3.45118 17.3417 3.45118 17.1464 3.64645L15.5 5.29289L14.8536 4.64645C14.6583 4.45118 14.3417 4.45118 14.1464 4.64645C13.9512 4.84171 13.9512 5.15829 14.1464 5.35355L15.1464 6.35355C15.3417 6.54882 15.6583 6.54882 15.8536 6.35355L17.8536 4.35355ZM2.75 4.5C2.33579 4.5 2 4.83579 2 5.25C2 5.66421 2.33579 6 2.75 6H11.25C11.6642 6 12 5.66421 12 5.25C12 4.83579 11.6642 4.5 11.25 4.5H2.75ZM2.75 9.5C2.33579 9.5 2 9.83579 2 10.25C2 10.6642 2.33579 11 2.75 11H11.25C11.6642 11 12 10.6642 12 10.25C12 9.83579 11.6642 9.5 11.25 9.5H2.75ZM2 15.25C2 14.8358 2.33579 14.5 2.75 14.5H11.25C11.6642 14.5 12 14.8358 12 15.25C12 15.6642 11.6642 16 11.25 16H2.75C2.33579 16 2 15.6642 2 15.25ZM15.8536 11.8536L17.8536 9.85355C18.0488 9.65829 18.0488 9.34171 17.8536 9.14645C17.6583 8.95118 17.3417 8.95118 17.1464 9.14645L15.5 10.7929L14.8536 10.1464C14.6583 9.95118 14.3417 9.95118 14.1464 10.1464C13.9512 10.3417 13.9512 10.6583 14.1464 10.8536L15.1464 11.8536C15.3417 12.0488 15.6583 12.0488 15.8536 11.8536ZM17.8536 14.8536L15.8536 16.8536C15.6583 17.0488 15.3417 17.0488 15.1464 16.8536L14.1464 15.8536C13.9512 15.6583 13.9512 15.3417 14.1464 15.1464C14.3417 14.9512 14.6583 14.9512 14.8536 15.1464L15.5 15.7929L17.1464 14.1464C17.3417 13.9512 17.6583 13.9512 17.8536 14.1464C18.0488 14.3417 18.0488 14.6583 17.8536 14.8536Z" fill="#212121"/>
</svg>

<svg xmlns="http://www.w3.org/2000/svg" width="20" height="20"><path d="M17.854 4.354a.5.5 0 0 0-.708-.708L15.5 5.293l-.646-.647a.5.5 0 0 0-.708.708l1 1a.5.5 0 0 0 .708 0l2-2ZM2.75 4.5a.75.75 0 0 0 0 1.5h8.5a.75.75 0 0 0 0-1.5h-8.5Zm0 5a.75.75 0 0 0 0 1.5h8.5a.75.75 0 0 0 0-1.5h-8.5ZM2 15.25a.75.75 0 0 1 .75-.75h8.5a.75.75 0 0 1 0 1.5h-8.5a.75.75 0 0 1-.75-.75Zm13.854-3.396 2-2a.5.5 0 0 0-.708-.708L15.5 10.793l-.646-.647a.5.5 0 0 0-.708.708l1 1a.5.5 0 0 0 .708 0Zm2 3-2 2a.5.5 0 0 1-.708 0l-1-1a.5.5 0 0 1 .708-.708l.646.647 1.646-1.647a.5.5 0 0 1 .708.708Z"/></svg>
